X: 16133
T: Green Grow The Rushes
R: barndance
M: 4/4
K: Gmajor
|:D|GGBA BGGB|AAed eAAB|c2 ce dBGB|A/B/cBA GEE:|
|:D|GGgf gddg|eea^g aeef|gage dBGB|G/A/cBA GEE:|

